!! Stephen C. Foster, "When this Dreadful War is Ended"
!! from 'Stephen Foster Song Book' Dover Publications (New York) pp. 157-160
!! NOTE:  Leading and trailing bars of rest have been omitted.
**kern
*M2/4
*MM78
*D:
8d
8e
=1
8f#
8a
8a
8a
=2
8a
8dd
8dd
8dd
=3
8dd
8b
8b
8b
=4
4b
8.dd
16b
=5
8a
8f#
8f#
8f#
=6
8g
8f#
8e
8d
=7
8f#
8e
8.e
16f#
=8
4e
8d
8e
=9
8f#
8a
8a
8a
=10
8a
8dd
8dd
8dd
=11
8dd
8b
8b
8b
=12
4b
8.dd
16b
=13
8a
8f#
8f#
8f#
=14
8g
8f#
8e
8d
=15
8e
8a
8b
8a
=16
4d
8c#
8d
=17
8e
8e
8d#
8e
=18
8f#
8f#
8.b
16a
=19
8g#
8g#
8a
8b
=20
4cc#
8cc#
8dd
=21
8ee
8cc#
8a
8g#
=22
8f#
8g#
8a
8b
=23
8cc#
8dd
8cc#
8b
=24
4.a
!! Chorus
{16f#
16g#}
=25
16a
16b
16a
16g#
8a
8dd
=26
8dd
8f#
8.f#
16f#
=27
8a
8e
8e
8a
=28
4.f#
{16f#
16g}
=29
16a
16b
16a
16g#
8a
8dd
=30
8dd
8f#
8f#
8b
=31
8a
8e
8e
8a
=32
4.d
==
*-
